<?xml version="1.0" encoding="UTF-8"?>
<map version="1.10" tiledversion="1.12.0" orientation="orthogonal" renderorder="right-down" width="20" height="15" tilewidth="32" tileheight="32" infinite="0" nextlayerid="6" nextobjectid="7">
 <tileset firstgid="1" source="tiled/donjon 1.tsx"/>
 <layer id="1" name="sol" width="20" height="15">
  <data encoding="csv">
813,814,815,816,810,810,811,812,813,810,811,812,813,814,815,816,817,818,818,816,
1042,814,815,816,817,810,810,811,810,811,812,813,814,815,816,817,818,818,814,0,
1042,814,815,816,817,818,810,810,811,812,813,814,815,816,817,818,818,813,814,0,
1042,810,810,810,810,810,810,811,812,813,814,815,816,817,818,818,812,813,814,0,
1042,810,944,812,813,810,811,812,813,814,815,816,817,818,818,812,813,814,815,0,
1042,810,810,810,810,810,810,811,812,813,814,815,816,817,818,812,813,814,815,0,
1042,810,811,812,813,814,810,810,811,812,813,814,815,816,817,818,818,815,816,0,
1042,814,810,811,812,813,814,810,811,812,813,814,815,816,817,818,818,818,815,0,
1042,814,815,816,817,818,815,816,810,811,812,813,814,815,816,817,818,818,818,0,
1042,814,815,816,817,818,818,811,810,811,812,813,814,815,816,817,818,817,818,0,
1042,813,814,815,816,817,818,818,818,811,812,813,814,815,816,817,818,816,817,0,
1042,811,944,813,814,815,816,817,818,818,818,818,818,815,816,817,818,815,816,0,
1042,814,815,816,810,811,812,813,814,815,816,817,818,818,818,818,818,815,816,0,
1042,813,814,815,816,817,818,818,818,818,818,818,810,811,812,813,814,815,816,0,
1042,813,814,815,816,817,818,818,810,810,810,810,811,812,813,814,815,816,817,818
</data>
 </layer>
 <layer id="2" name="wall" width="20" height="15">
  <data encoding="csv">
1155,1043,1043,1043,1043,1043,1043,1043,1043,1043,1043,1043,1043,1043,982,1043,1043,1043,1043,1043,
1155,0,0,0,0,0,0,0,0,0,0,0,0,0,0,0,0,0,0,1155,
1155,0,0,0,0,0,0,0,0,0,0,0,0,0,0,0,0,0,0,1155,
1155,0,0,0,0,0,0,0,0,0,0,0,0,0,0,0,0,0,0,1155,
1155,0,0,0,0,0,0,0,0,0,0,0,0,0,0,0,0,0,0,1155,
1155,0,0,0,0,0,0,0,0,0,0,0,0,0,0,0,0,0,0,1155,
1155,0,0,0,0,0,0,0,0,0,0,0,0,0,0,0,0,0,0,1155,
1155,0,0,0,0,0,0,0,0,0,0,0,0,0,0,0,0,0,0,1155,
1155,0,0,0,0,0,0,0,0,0,0,0,0,0,0,0,0,0,0,1155,
1155,0,0,0,0,0,0,0,0,0,0,0,0,0,0,0,0,0,0,1155,
1155,0,0,0,0,0,0,0,0,0,0,0,0,0,0,0,0,0,0,1155,
1155,0,0,0,0,0,0,0,0,0,0,0,0,0,0,0,0,0,0,1155,
1155,0,0,0,0,0,0,0,0,0,0,0,0,0,0,0,0,0,0,1155,
1155,0,0,0,0,0,0,0,0,0,0,0,0,0,0,0,0,0,0,1155,
1155,945,945,945,945,945,945,945,945,750,751,752,945,945,945,945,945,945,945,945
</data>
 </layer>
 <layer id="5" name="WALL REPLACE" width="20" height="15">
  <data encoding="csv">
0,0,0,0,0,0,0,0,0,0,0,0,0,0,0,0,0,0,0,0,
0,0,0,0,0,0,0,0,0,0,0,0,0,0,0,0,0,0,0,0,
0,0,0,0,0,0,0,0,0,0,0,0,0,0,0,0,0,0,0,0,
0,0,0,0,0,0,0,0,0,0,0,0,0,0,0,0,0,0,0,0,
0,0,0,0,0,0,0,0,0,0,0,0,0,0,0,0,0,0,0,0,
0,0,0,0,0,0,0,0,0,0,0,0,0,0,0,0,0,0,0,0,
0,0,0,0,0,0,0,0,0,0,0,0,0,0,0,0,0,0,0,0,
0,1066,1066,1066,1066,1066,1066,1066,1066,1066,1066,1066,1066,1066,1066,1066,1066,1066,1066,0,
0,0,0,0,0,0,0,0,0,0,0,0,0,0,0,0,0,0,0,0,
0,0,0,0,0,0,0,0,0,0,0,0,0,0,0,0,0,0,0,0,
0,0,0,0,0,0,0,0,0,0,0,0,0,0,0,0,0,0,0,0,
0,0,0,0,0,0,0,0,0,0,0,0,0,0,0,0,0,0,0,0,
0,0,0,0,0,0,0,0,0,0,0,0,0,0,0,0,0,0,0,0,
0,0,0,0,0,0,0,0,0,0,0,0,0,0,0,0,0,0,0,0,
0,0,0,0,0,0,0,0,0,0,0,0,0,0,0,0,0,0,0,0
</data>
 </layer>
 <layer id="3" name="deco" width="20" height="15">
  <data encoding="csv">
0,0,0,0,0,0,0,0,0,0,0,0,0,1210,0,1210,0,0,0,0,
0,782,0,0,0,0,0,0,0,0,0,0,0,0,0,0,0,0,782,0,
0,0,0,0,0,0,0,0,0,0,0,0,0,0,0,0,0,0,0,0,
0,0,0,0,0,0,0,0,0,0,0,0,0,0,0,0,0,0,0,0,
0,0,0,0,0,0,0,0,0,0,0,0,0,0,0,0,0,0,0,0,
0,0,0,0,0,0,0,0,0,0,0,0,0,0,0,0,0,0,0,0,
0,0,0,0,0,0,0,0,0,0,0,0,0,0,0,0,0,0,0,0,
0,0,0,0,0,0,0,0,0,0,0,0,0,0,0,0,0,0,0,0,
0,0,0,0,0,0,0,0,0,0,0,0,0,0,0,0,0,0,0,0,
0,0,0,0,0,0,0,0,0,0,0,0,0,0,0,0,0,0,0,0,
0,0,0,0,0,0,0,0,0,0,0,0,0,0,0,0,0,0,0,0,
0,0,0,0,0,0,0,0,0,0,0,0,0,0,0,0,0,0,0,0,
0,0,0,0,0,0,0,0,0,0,0,0,0,0,0,0,0,0,0,0,
0,782,0,0,0,0,0,0,0,0,0,0,0,0,0,0,0,0,782,0,
0,0,0,0,0,0,0,0,0,0,0,0,0,0,0,0,0,0,0,0
</data>
 </layer>
 <objectgroup id="4" name="objet">
  <object id="2" name="plaque 2" type="plaque" x="61.6349" y="129.003" width="35.8343" height="32.9675"/>
  <object id="3" name="plaque 1" type="plaque" x="63.0683" y="350.459" width="31.5342" height="32.2508"/>
  <object id="5" name="porte back vers 1" type="porte" x="286.352" y="412.577" width="97.3741" height="34.6219">
   <properties>
    <property name="target" value="salle1"/>
   </properties>
  </object>
  <object id="6" name="porte vers 3" type="porte" x="420" y="43" width="87" height="84">
   <properties>
    <property name="target" value="salle3"/>
   </properties>
  </object>
 </objectgroup>
</map>
