<?xml version="1.0" encoding="UTF-8"?>
<map version="1.10" tiledversion="1.12.0" orientation="orthogonal" renderorder="right-down" width="20" height="15" tilewidth="32" tileheight="32" infinite="0" nextlayerid="7" nextobjectid="29">
 <tileset firstgid="1" source="tiled/donjon 1.tsx"/>
 <tileset firstgid="3073" source="tiled/levier bleu.tsx"/>
 <tileset firstgid="3074" source="tiled/cristalvert.tsx"/>
 <layer id="1" name="sol" width="20" height="15">
  <data encoding="csv">
857,855,855,856,857,858,859,860,860,859,860,855,856,857,858,859,860,860,860,861,
857,858,859,860,860,858,855,856,857,858,859,860,855,856,857,858,859,860,860,861,
857,858,859,855,856,857,858,855,856,857,858,859,860,856,857,858,859,860,860,861,
857,858,859,860,855,856,855,856,857,858,859,860,856,855,856,857,858,859,860,860,
857,858,855,856,857,858,859,860,856,857,858,859,860,860,856,857,858,859,860,860,
858,859,860,856,857,858,855,856,857,858,859,860,859,860,855,856,857,858,859,860,
857,855,856,857,858,859,860,856,857,858,859,860,858,859,860,855,856,857,858,859,
856,857,858,859,855,856,857,858,859,860,860,857,858,859,860,855,856,857,858,859,
858,859,860,855,856,857,858,859,860,858,859,860,857,858,859,855,856,857,858,859,
856,857,855,856,857,858,855,856,855,856,857,858,859,860,858,859,860,860,858,859,
855,856,857,858,859,860,855,856,857,858,859,860,855,856,857,858,859,860,859,860,
857,858,855,856,855,855,856,857,858,859,860,855,856,855,856,857,858,859,860,860,
857,858,859,860,860,855,855,855,856,857,855,856,857,855,856,857,858,859,860,860,
858,855,856,857,858,859,860,856,857,858,859,860,855,856,857,858,859,860,859,860,
858,859,860,855,855,856,857,858,859,860,860,855,856,857,858,859,860,859,860,861
</data>
 </layer>
 <layer id="3" name="wall tuiles" width="20" height="15">
  <data encoding="csv">
1032,1032,1032,1032,1032,1032,1032,1032,1032,1032,1032,1032,1032,1032,1032,1032,1032,1032,1032,1032,
1031,782,0,0,0,0,0,0,0,0,0,0,0,0,0,0,0,0,782,1031,
1031,0,0,0,0,0,0,0,0,0,0,0,0,0,0,0,0,0,0,1031,
1031,0,0,0,0,0,0,0,0,0,0,0,0,0,0,0,0,0,0,1031,
1031,0,0,0,0,0,1032,1029,1030,1032,1030,0,0,0,0,0,0,0,0,1031,
1031,0,0,0,0,0,1030,1032,1030,1029,1030,0,0,0,0,0,0,0,0,1031,
1031,0,0,0,0,0,0,0,0,0,0,0,0,0,0,0,0,0,0,1031,
1031,0,0,0,0,0,0,0,0,0,0,0,0,0,0,0,0,0,0,1031,
1031,0,0,0,0,0,0,0,0,0,0,0,0,0,0,0,0,0,0,1031,
1031,0,0,0,0,0,0,0,0,0,0,1029,1032,1029,1032,1032,0,0,0,1031,
1031,0,0,0,0,0,0,0,0,0,0,1032,1032,1030,1029,1032,0,0,0,1031,
1031,0,0,0,0,0,0,0,0,0,0,1029,1032,1032,1029,1032,0,0,0,1031,
1031,0,0,0,0,0,0,0,0,0,0,0,0,0,0,0,0,0,0,1031,
1031,782,0,0,0,0,0,0,0,0,0,0,0,0,0,0,0,0,782,1031,
1032,1032,1032,1032,1032,1032,1032,1032,1032,1032,1032,1032,1032,1032,1032,1032,1032,1032,1032,1032
</data>
 </layer>
 <layer id="4" name="deco" width="20" height="15">
  <data encoding="csv">
0,0,0,0,0,0,0,0,0,0,0,0,0,0,0,994,0,0,0,0,
0,0,0,0,0,0,0,0,0,0,0,0,0,0,0,0,0,0,0,0,
0,0,0,0,0,0,0,0,0,0,0,0,0,0,0,0,0,0,0,0,
0,0,0,0,0,0,0,0,0,0,0,0,0,0,0,856,0,0,0,0,
0,0,0,0,0,0,0,0,0,0,0,0,0,0,0,0,0,0,0,0,
0,0,0,0,0,0,0,0,0,0,0,0,0,0,0,0,0,0,0,0,
0,0,0,0,0,0,0,0,0,0,0,0,0,0,0,0,0,0,0,0,
0,0,0,0,0,0,0,0,0,0,0,0,0,0,0,0,0,0,0,0,
0,0,0,0,0,0,0,0,0,0,0,0,0,0,0,0,856,0,0,0,
0,0,0,0,0,0,0,0,0,0,0,0,0,0,0,0,0,0,0,0,
0,0,0,0,0,0,0,0,0,0,0,0,0,0,0,0,0,0,0,0,
0,0,0,0,0,0,0,0,0,0,0,0,0,0,0,0,0,0,0,0,
0,0,0,0,0,0,0,0,0,0,0,0,0,0,0,0,0,0,0,0,
0,0,0,0,0,0,0,0,0,0,0,0,0,0,0,0,0,0,0,0,
0,0,0,0,0,0,0,0,0,0,0,0,0,0,0,0,0,0,0,0
</data>
 </layer>
 <objectgroup id="5" name="Calque d'Objets 1">
  <object id="8" name="poiredetest" type="collectible" x="422.14" y="239.502">
   <polygon points="0,0 16.056,-10.704 12.042,8.02801 0.669001,8.02801"/>
  </object>
  <object id="26" name="spawn salle 1" type="spawn" x="34.6423" y="188.904">
   <point/>
  </object>
  <object id="28" name="porte 1" type="porte" x="456.576" y="38.2283" width="83.7498" height="31.666">
   <properties>
    <property name="target" value="salle2"/>
   </properties>
  </object>
 </objectgroup>
 <layer id="6" name="objet texture" width="20" height="15">
  <data encoding="csv">
0,0,0,0,0,0,0,0,0,0,0,0,0,0,1210,0,1210,0,0,0,
0,0,0,0,0,0,0,0,0,0,0,0,0,0,0,0,0,0,0,0,
0,0,0,0,0,0,0,0,0,0,0,0,0,0,0,0,0,0,0,0,
0,0,0,0,0,0,0,0,0,0,0,0,0,0,0,0,0,0,0,0,
0,0,0,0,0,0,0,0,0,0,0,0,0,0,0,0,0,0,0,0,
0,0,0,0,0,0,0,0,0,0,0,0,0,0,0,0,0,0,0,0,
0,817,818,817,0,0,0,0,0,0,0,0,0,0,0,0,0,0,0,0,
0,817,817,813,0,0,0,0,0,0,0,0,0,3074,0,0,0,0,0,0,
0,818,817,817,0,0,0,0,0,0,0,0,0,0,0,0,0,0,0,0,
0,0,0,0,0,0,0,0,0,0,0,0,0,0,0,0,0,0,0,0,
0,0,0,0,0,0,0,0,0,0,0,0,0,0,0,0,0,0,0,0,
0,0,0,0,0,0,0,0,0,0,0,0,0,0,0,0,0,0,0,0,
0,0,0,0,0,0,0,0,0,0,0,0,0,0,0,0,0,0,0,0,
0,0,0,0,0,0,0,0,0,0,0,0,0,0,0,0,0,0,0,0,
0,0,0,0,0,0,0,0,0,0,0,0,0,0,0,0,0,0,0,0
</data>
 </layer>
</map>
