<?xml version="1.0" encoding="UTF-8"?>
<map version="1.10" tiledversion="1.12.0" orientation="orthogonal" renderorder="right-down" width="20" height="15" tilewidth="32" tileheight="32" infinite="0" nextlayerid="16" nextobjectid="16">
 <tileset firstgid="1" source="tiled/donjon 1.tsx"/>
 <tileset firstgid="3074" source="tiled/levier rouge.tsx"/>
 <tileset firstgid="3075" source="tiled/levier bleu.tsx"/>
 <layer id="1" name="sol" width="20" height="15">
  <data encoding="csv">
822,822,822,822,822,822,822,822,822,822,822,822,822,822,822,822,822,822,822,822,
822,822,822,822,822,822,822,822,822,822,822,822,822,822,822,822,822,822,822,822,
822,822,822,822,822,822,822,822,822,822,822,822,822,822,822,822,822,822,822,822,
822,822,822,822,822,822,822,822,822,822,822,822,822,822,822,822,822,822,822,822,
822,822,822,822,822,822,822,822,822,822,822,822,822,822,822,822,822,822,822,822,
822,822,822,822,822,822,822,822,822,822,822,822,822,822,822,822,822,822,822,822,
822,822,822,822,822,822,822,822,822,822,822,822,822,822,822,822,822,822,822,822,
822,822,822,822,822,822,822,822,822,822,822,822,822,822,822,822,822,822,822,822,
822,822,822,822,822,822,822,822,822,822,822,822,822,822,822,822,822,822,822,822,
822,822,822,822,822,822,822,822,822,822,822,822,822,822,822,822,822,822,822,822,
822,822,822,822,822,822,822,822,822,822,822,822,822,822,822,822,822,822,822,822,
822,822,822,822,822,822,822,822,822,822,822,822,822,822,822,822,822,822,822,822,
822,822,822,822,822,822,822,822,822,822,822,822,822,822,822,822,822,822,822,822,
822,822,822,822,822,822,822,822,822,822,822,822,822,822,822,822,822,822,822,822,
822,822,822,822,822,822,822,822,822,822,822,822,822,822,822,822,822,822,822,822
</data>
 </layer>
 <layer id="9" name="levier 1 inactif" width="20" height="15">
  <data encoding="csv">
0,0,0,0,0,0,0,0,0,0,0,0,0,0,0,0,0,0,0,0,
0,0,0,0,0,0,0,0,0,0,0,0,0,0,0,0,0,0,0,0,
0,0,0,0,0,0,0,0,0,0,0,0,0,0,0,0,0,0,0,0,
0,0,0,0,0,0,0,0,0,0,0,0,0,0,0,0,0,0,0,0,
0,0,0,0,0,0,0,0,0,0,0,0,0,0,0,0,0,0,0,0,
0,0,0,0,0,0,0,0,0,0,0,0,0,0,0,0,0,0,0,0,
0,0,0,0,0,0,0,0,0,0,0,0,0,0,0,0,0,0,0,0,
0,0,0,0,0,0,0,0,0,0,0,0,0,0,0,0,0,0,0,0,
0,0,3074,0,0,0,0,0,0,0,0,0,0,0,0,0,0,0,0,0,
0,0,0,0,0,0,0,0,0,0,0,0,0,0,0,0,0,0,0,0,
0,0,0,0,0,0,0,0,0,0,0,0,0,0,0,0,0,0,0,0,
0,0,0,0,0,0,0,0,0,0,0,0,0,0,0,0,0,0,0,0,
0,0,0,0,0,0,0,0,0,0,0,0,0,0,0,0,0,0,0,0,
0,0,0,0,0,0,0,0,0,0,0,0,0,0,0,0,0,0,0,0,
0,0,0,0,0,0,0,0,0,0,0,0,0,0,0,0,0,0,0,0
</data>
 </layer>
 <layer id="15" name="levier 2 inactif" width="20" height="15">
  <data encoding="csv">
0,0,0,0,0,0,0,0,0,0,0,0,0,0,0,0,0,0,0,0,
0,0,0,0,0,0,0,0,0,0,0,0,0,0,0,0,0,0,0,0,
0,0,0,0,0,0,0,0,0,0,0,0,0,0,0,0,0,0,0,0,
0,0,0,0,0,0,0,0,0,0,0,0,0,0,0,0,0,0,0,0,
0,0,0,0,0,0,0,0,0,0,0,0,0,0,0,0,0,0,0,0,
0,0,0,0,0,0,0,0,0,0,0,0,0,0,0,0,0,0,0,0,
0,0,0,0,0,0,0,0,0,0,0,0,0,0,0,0,0,3074,0,0,
0,0,0,0,0,0,0,0,0,0,0,0,0,0,0,0,0,0,0,0,
0,0,0,0,0,0,0,0,0,0,0,0,0,0,0,0,0,0,0,0,
0,0,0,0,0,0,0,0,0,0,0,0,0,0,0,0,0,0,0,0,
0,0,0,0,0,0,0,0,0,0,0,0,0,0,0,0,0,0,0,0,
0,0,0,0,0,0,0,0,0,0,0,0,0,0,0,0,0,0,0,0,
0,0,0,0,0,0,0,0,0,0,0,0,0,0,0,0,0,0,0,0,
0,0,0,0,0,0,0,0,0,0,0,0,0,0,0,0,0,0,0,0,
0,0,0,0,0,0,0,0,0,0,0,0,0,0,0,0,0,0,0,0
</data>
 </layer>
 <layer id="3" name="wall" width="20" height="15">
  <data encoding="csv">
1193,1193,1193,1193,1193,1196,1197,1198,1199,1196,1193,1193,1193,987,1193,1193,1193,1193,1193,1193,
1193,0,0,0,0,0,0,0,0,0,0,0,0,0,0,0,0,0,0,1197,
1193,0,0,0,0,0,0,0,0,0,0,0,0,0,0,0,0,0,0,1196,
1196,0,0,0,0,0,0,0,0,0,0,0,0,0,0,0,0,0,0,1193,
1197,0,0,0,0,0,0,0,0,0,0,0,0,0,0,0,0,0,0,1193,
1199,0,0,0,0,0,0,0,0,1193,1193,0,0,0,0,0,0,0,0,1193,
1197,0,0,0,0,0,0,0,0,1193,1197,0,0,0,0,0,0,0,0,1193,
1196,0,0,0,0,0,0,0,0,1193,1196,0,0,0,0,0,0,0,0,1193,
1193,0,0,0,0,0,0,0,0,1193,1193,0,0,0,0,0,0,0,0,1193,
1193,0,0,0,0,0,0,0,0,1196,1193,0,0,0,0,0,0,0,0,1196,
1193,0,0,0,0,0,0,0,0,1197,1193,0,0,0,0,0,0,0,0,1197,
1193,0,0,0,0,0,0,0,0,1198,1196,0,0,0,0,0,0,0,0,1198,
1193,0,0,0,0,0,0,0,0,1196,1193,0,0,0,0,0,0,0,0,1196,
1193,0,0,0,0,0,0,0,0,1193,1193,0,0,0,0,0,0,0,0,1193,
1193,1193,1193,1196,1198,1199,1196,1193,1193,1128,1193,1193,1193,1193,1193,1193,1193,1193,1193,1193
</data>
 </layer>
 <layer id="5" name="wall replace 2" width="20" height="15">
  <data encoding="csv">
0,0,0,0,0,0,0,0,0,0,0,0,0,0,0,0,0,0,0,0,
0,726,0,0,0,0,0,0,0,0,0,0,0,0,0,0,0,0,726,0,
0,0,0,0,0,0,0,0,0,0,0,0,0,0,0,0,0,0,0,0,
0,0,0,0,0,0,0,0,0,0,0,0,0,0,0,0,0,0,0,0,
0,1068,1068,1068,1068,1068,1068,1068,1068,1068,0,0,0,0,0,0,0,0,0,0,
0,0,0,0,0,0,0,0,0,0,0,0,0,0,0,0,0,0,0,0,
0,0,0,0,0,0,0,0,0,0,0,0,0,0,0,0,0,0,0,0,
0,0,0,0,0,0,0,0,0,0,0,0,0,0,0,0,0,0,0,0,
0,0,0,0,0,0,0,0,0,0,0,0,0,0,0,0,0,0,0,0,
0,0,0,0,0,0,0,0,0,0,0,0,0,0,0,0,0,0,0,0,
0,0,0,0,0,0,0,0,0,0,0,0,0,0,0,0,0,0,0,0,
0,0,0,0,0,0,0,0,0,0,0,0,0,0,0,0,0,0,0,0,
0,0,0,0,0,0,0,0,0,0,0,0,0,0,0,0,0,0,0,0,
0,0,0,0,0,0,0,0,0,0,0,0,0,0,0,0,0,0,0,0,
0,0,0,0,0,0,0,0,0,0,0,0,0,0,0,0,0,0,0,0
</data>
 </layer>
 <layer id="6" name="wall replace 3" width="20" height="15">
  <data encoding="csv">
0,0,0,0,0,0,0,0,0,0,0,0,0,0,0,0,0,0,0,0,
0,0,0,0,0,0,0,0,0,0,0,0,0,0,0,0,0,0,0,0,
0,0,0,0,0,0,0,0,0,0,0,0,0,0,0,0,0,0,0,0,
0,0,0,0,0,0,0,0,0,0,0,0,0,0,0,0,0,0,0,0,
0,0,0,0,0,0,0,0,0,0,1068,1068,1068,1068,1068,1068,1068,1068,1068,0,
0,0,0,0,0,0,0,0,0,0,0,0,0,0,0,0,0,0,0,0,
0,0,0,0,0,0,0,0,0,0,0,0,0,0,0,0,0,0,0,0,
0,0,0,0,0,0,0,0,0,0,0,0,0,0,0,0,0,0,0,0,
0,0,0,0,0,0,0,0,0,0,0,0,0,0,0,0,0,0,0,0,
0,0,0,0,0,0,0,0,0,0,0,0,0,0,0,0,0,0,0,0,
0,0,0,0,0,0,0,0,0,0,0,0,0,0,0,0,0,0,0,0,
0,0,0,0,0,0,0,0,0,0,0,0,0,0,0,0,0,0,0,0,
0,0,0,0,0,0,0,0,0,0,0,0,0,0,0,0,0,0,0,0,
0,0,0,0,0,0,0,0,0,0,0,0,0,0,0,0,0,0,0,0,
0,0,0,0,0,0,0,0,0,0,0,0,0,0,0,0,0,0,0,0
</data>
 </layer>
 <layer id="14" name="levier 2 actif" width="20" height="15">
  <data encoding="csv">
0,0,0,0,0,0,0,0,0,0,0,0,0,0,0,0,0,0,0,0,
0,0,0,0,0,0,0,0,0,0,0,0,0,0,0,0,0,0,0,0,
0,0,0,0,0,0,0,0,0,0,0,0,0,0,0,0,0,0,0,0,
0,0,0,0,0,0,0,0,0,0,0,0,0,0,0,0,0,0,0,0,
0,0,0,0,0,0,0,0,0,0,0,0,0,0,0,0,0,0,0,0,
0,0,0,0,0,0,0,0,0,0,0,0,0,0,0,0,0,0,0,0,
0,0,0,0,0,0,0,0,0,0,0,0,0,0,0,0,0,3075,0,0,
0,0,0,0,0,0,0,0,0,0,0,0,0,0,0,0,0,0,0,0,
0,0,0,0,0,0,0,0,0,0,0,0,0,0,0,0,0,0,0,0,
0,0,0,0,0,0,0,0,0,0,0,0,0,0,0,0,0,0,0,0,
0,0,0,0,0,0,0,0,0,0,0,0,0,0,0,0,0,0,0,0,
0,0,0,0,0,0,0,0,0,0,0,0,0,0,0,0,0,0,0,0,
0,0,0,0,0,0,0,0,0,0,0,0,0,0,0,0,0,0,0,0,
0,0,0,0,0,0,0,0,0,0,0,0,0,0,0,0,0,0,0,0,
0,0,0,0,0,0,0,0,0,0,0,0,0,0,0,0,0,0,0,0
</data>
 </layer>
 <layer id="7" name="deco" width="20" height="15">
  <data encoding="csv">
0,0,0,0,0,0,0,0,0,0,0,0,1210,0,1210,0,0,0,0,0,
0,0,0,0,0,0,0,0,0,0,0,0,0,0,0,0,0,0,0,0,
0,0,0,0,0,0,0,0,0,0,0,0,0,0,0,0,0,0,0,0,
0,0,0,0,0,0,0,0,0,0,0,0,0,0,0,0,0,0,0,0,
0,0,0,0,0,0,0,0,0,0,0,0,0,0,0,0,0,0,0,0,
0,0,0,0,0,0,0,0,0,0,0,0,0,0,0,0,0,0,0,0,
0,0,0,0,0,0,0,0,0,0,0,0,0,0,0,0,0,0,0,0,
0,0,0,0,0,0,0,0,0,0,0,0,0,0,0,0,0,0,0,0,
0,0,0,0,0,0,0,0,0,0,0,0,0,0,0,0,0,0,0,0,
0,0,0,0,0,0,0,0,0,0,0,0,0,0,0,0,0,0,0,0,
0,0,0,0,0,0,0,0,0,0,0,0,0,0,0,0,0,0,0,0,
0,0,0,0,0,0,0,0,0,0,0,0,0,0,0,0,0,0,0,0,
0,0,0,0,0,0,0,0,0,0,0,0,0,0,0,0,0,0,0,0,
0,0,0,0,0,0,0,0,0,0,0,0,0,0,0,0,0,0,0,0,
0,0,0,0,0,0,1210,728,1210,1193,0,1210,728,1210,0,0,0,0,0,0
</data>
 </layer>
 <objectgroup id="8" name="objet">
  <object id="1" name="levier 1" type="levier" x="66.6667" y="257.333" width="24" height="30">
   <capsule/>
  </object>
  <object id="2" name="levier 2" type="levier" x="546" y="193.333" width="25.3333" height="30.6667">
   <capsule/>
  </object>
  <object id="11" name="spawn J1 salle 4" type="spawn" x="145.676" y="371.23">
   <point/>
  </object>
  <object id="14" name="spawn J2 salle 4" type="spawn" x="495.658" y="375.076">
   <point/>
  </object>
  <object id="15" name="porte vers 5" type="porte" x="370.785" y="40.8097" width="121.652" height="33.4251">
   <properties>
    <property name="target" value="salle5"/>
   </properties>
  </object>
 </objectgroup>
</map>
